packages/foundations/assets/icons/functional/images/layout/grid.svg

<svg xmlns="http://www.w3.org/2000/svg" width="32" height="32" fill="none"><path fill="#1A1C1F" fill-rule="evenodd" d="M5.459 3.041c-1.149.156-2.146 1.101-2.392 2.266-.112.532-.115 5.852-.004 6.378.224 1.055 1.005 1.886 2.084 2.217.294.09.56.098 3.36.098 2.793 0 3.066-.008 3.36-.098a3.06 3.06 0 0 0 2.035-2.035c.09-.294.098-.567.098-3.36 0-2.8-.008-3.066-.098-3.36-.297-.97-.91-1.615-1.896-1.995l-.353-.136-2.933-.01c-1.613-.005-3.081.011-3.261.035m15.128-.02c-.895.099-1.816.715-2.222 1.486-.372.705-.365.628-.365 4 0 2.799.008 3.065.098 3.36a3.02 3.02 0 0 0 2.035 2.035c.295.09.561.098 3.36.098 3 0 3.045-.002 3.414-.119 1.098-.351 1.845-1.188 2.053-2.302.031-.169.053-1.436.052-3.093-.001-3.098-.014-3.26-.327-3.898-.221-.449-.807-1.037-1.245-1.25-.681-.331-.54-.318-3.733-.328-1.614-.006-3.018-.001-3.12.011m-9.04 2.113c.14.079.254.201.333.358.12.237.12.24.12 3.018v2.78l-.123.232a.8.8 0 0 1-.355.355L11.29 12H8.51c-2.778 0-2.781 0-3.018-.12a.83.83 0 0 1-.358-.333l-.119-.214V5.68l.12-.212c.068-.119.214-.265.333-.333l.212-.12h5.653zm15.076.05c.374.285.364.193.363 3.331-.001 2.818-.001 2.818-.12 3.032a.83.83 0 0 1-.358.333c-.237.12-.24.12-3.018.12h-2.78l-.232-.123a.8.8 0 0 1-.355-.355L20 11.29V8.515c0-2.704.003-2.78.111-3.005a.87.87 0 0 1 .334-.363l.222-.134 2.884.013 2.884.014zM5.126 18.111c-1.012.272-1.841 1.158-2.063 2.204-.111.526-.108 5.846.004 6.378.121.571.362 1.007.797 1.443.436.435.872.676 1.443.797.533.112 5.852.115 6.379.004 1.05-.223 1.887-1.009 2.216-2.084.09-.294.098-.56.098-3.36 0-2.793-.008-3.066-.098-3.36-.296-.97-1.072-1.751-1.996-2.007-.329-.092-.594-.099-3.425-.096-2.503.003-3.121.018-3.355.081m14.944.018c-.905.259-1.681 1.047-1.972 2.004-.09.294-.098.567-.098 3.36 0 2.8.008 3.066.098 3.36.329 1.075 1.166 1.861 2.216 2.084.52.11 5.847.108 6.368-.002a2.96 2.96 0 0 0 2.253-2.253c.11-.521.112-5.848.002-6.367-.224-1.058-1.056-1.939-2.086-2.207-.265-.069-.79-.081-3.382-.078-2.77.004-3.101.013-3.399.099m-8.673 1.928c.204.077.441.307.53.515.059.138.073.705.072 2.933-.001 2.578-.008 2.776-.101 2.98-.054.121-.18.277-.278.347l-.18.128-2.865.015c-3.187.016-3.105.024-3.381-.338l-.154-.202-.013-2.884-.013-2.884.12-.214a.83.83 0 0 1 .358-.333c.237-.12.241-.12 2.996-.12 1.819 0 2.81.019 2.909.057m15.111.063a.83.83 0 0 1 .358.333l.12.214-.013 2.884-.013 2.884-.154.202c-.276.362-.194.354-3.381.338l-2.865-.015-.18-.128a1 1 0 0 1-.278-.347c-.093-.204-.1-.403-.101-2.997L20 20.71l.123-.232a.8.8 0 0 1 .355-.355L20.71 20h2.78c2.778 0 2.781 0 3.018.12"/></svg>

<svg width="32" height="32" viewBox="0 0 32 32" fill="none" xmlns="http://www.w3.org/2000/svg"><path d="M5.459 3.041 C 4.310 3.197,3.313 4.142,3.067 5.307 C 2.955 5.839,2.952 11.159,3.063 11.685 C 3.287 12.740,4.068 13.571,5.147 13.902 C 5.441 13.992,5.707 14.000,8.507 14.000 C 11.300 14.000,11.573 13.992,11.867 13.902 C 12.842 13.605,13.605 12.842,13.902 11.867 C 13.992 11.573,14.000 11.300,14.000 8.507 C 14.000 5.707,13.992 5.441,13.902 5.147 C 13.605 4.177,12.992 3.532,12.006 3.152 L 11.653 3.016 8.720 3.006 C 7.107 3.001,5.639 3.017,5.459 3.041 M20.587 3.021 C 19.692 3.120,18.771 3.736,18.365 4.507 C 17.993 5.212,18.000 5.135,18.000 8.507 C 18.000 11.306,18.008 11.572,18.098 11.867 C 18.402 12.858,19.142 13.598,20.133 13.902 C 20.428 13.992,20.694 14.000,23.493 14.000 C 26.493 14.000,26.538 13.998,26.907 13.881 C 28.005 13.530,28.752 12.693,28.960 11.579 C 28.991 11.410,29.013 10.143,29.012 8.486 C 29.011 5.388,28.998 5.226,28.685 4.588 C 28.464 4.139,27.878 3.551,27.440 3.338 C 26.759 3.007,26.900 3.020,23.707 3.010 C 22.093 3.004,20.689 3.009,20.587 3.021 M11.547 5.134 C 11.687 5.213,11.801 5.335,11.880 5.492 C 12.000 5.729,12.000 5.732,12.000 8.510 L 12.000 11.290 11.877 11.522 C 11.793 11.681,11.681 11.793,11.522 11.877 L 11.290 12.000 8.510 12.000 C 5.732 12.000,5.729 12.000,5.492 11.880 C 5.335 11.801,5.213 11.687,5.134 11.547 L 5.015 11.333 5.015 8.507 L 5.015 5.680 5.135 5.468 C 5.203 5.349,5.349 5.203,5.468 5.135 L 5.680 5.015 8.507 5.015 L 11.333 5.015 11.547 5.134 M26.623 5.184 C 26.997 5.469,26.987 5.377,26.986 8.515 C 26.985 11.333,26.985 11.333,26.866 11.547 C 26.787 11.687,26.665 11.801,26.508 11.880 C 26.271 12.000,26.268 12.000,23.490 12.000 L 20.710 12.000 20.478 11.877 C 20.319 11.793,20.207 11.681,20.123 11.522 L 20.000 11.290 20.000 8.515 C 20.000 5.811,20.003 5.735,20.111 5.510 C 20.183 5.362,20.301 5.233,20.445 5.147 L 20.667 5.013 23.551 5.026 L 26.435 5.040 26.623 5.184 M5.126 18.111 C 4.114 18.383,3.285 19.269,3.063 20.315 C 2.952 20.841,2.955 26.161,3.067 26.693 C 3.188 27.264,3.429 27.700,3.864 28.136 C 4.300 28.571,4.736 28.812,5.307 28.933 C 5.840 29.045,11.159 29.048,11.686 28.937 C 12.736 28.714,13.573 27.928,13.902 26.853 C 13.992 26.559,14.000 26.293,14.000 23.493 C 14.000 20.700,13.992 20.427,13.902 20.133 C 13.606 19.163,12.830 18.382,11.906 18.126 C 11.577 18.034,11.312 18.027,8.481 18.030 C 5.978 18.033,5.360 18.048,5.126 18.111 M20.070 18.129 C 19.165 18.388,18.389 19.176,18.098 20.133 C 18.008 20.427,18.000 20.700,18.000 23.493 C 18.000 26.293,18.008 26.559,18.098 26.853 C 18.427 27.928,19.264 28.714,20.314 28.937 C 20.834 29.047,26.161 29.045,26.682 28.935 C 27.798 28.698,28.698 27.798,28.935 26.682 C 29.045 26.161,29.047 20.834,28.937 20.315 C 28.713 19.257,27.881 18.376,26.851 18.108 C 26.586 18.039,26.061 18.027,23.469 18.030 C 20.699 18.034,20.368 18.043,20.070 18.129 M11.397 20.057 C 11.601 20.134,11.838 20.364,11.927 20.572 C 11.986 20.710,12.000 21.277,11.999 23.505 C 11.998 26.083,11.991 26.281,11.898 26.485 C 11.844 26.606,11.718 26.762,11.620 26.832 L 11.440 26.960 8.575 26.975 C 5.388 26.991,5.470 26.999,5.194 26.637 L 5.040 26.435 5.027 23.551 L 5.014 20.667 5.134 20.453 C 5.213 20.313,5.335 20.199,5.492 20.120 C 5.729 20.000,5.733 20.000,8.488 20.000 C 10.307 20.000,11.298 20.019,11.397 20.057 M26.508 20.120 C 26.665 20.199,26.787 20.313,26.866 20.453 L 26.986 20.667 26.973 23.551 L 26.960 26.435 26.806 26.637 C 26.530 26.999,26.612 26.991,23.425 26.975 L 20.560 26.960 20.380 26.832 C 20.282 26.762,20.156 26.606,20.102 26.485 C 20.009 26.281,20.002 26.082,20.001 23.488 L 20.000 20.710 20.123 20.478 C 20.207 20.319,20.319 20.207,20.478 20.123 L 20.710 20.000 23.490 20.000 C 26.268 20.000,26.271 20.000,26.508 20.120 " fill="#1A1C1F" stroke="none" fill-rule="evenodd"></path></svg>
